-----BEGIN PGP SIGNATURE-----

iQIcBAABAgAGBQJpeFakAAoJELBG9AwsnU7LzgwP/iMWmDxScuoMCQxWTi58a8ia
a+l21/GpXRIrhAbbJ/5Qf8YpS6uvIRqIwFjCIdFjkNuOJ96NRqAT7u5N6ZBmBaRs
UgcYnUGYIastEAdFUn4y6hjEYx4liqbSHyE7RMotIouDHJJ/iv1kDwbzhNFn9o8q
p0jvndxJKIuE14MNH0vIsEm4hMkygwW4XlpzMu7fcWq7zoVVfUp4zU/ZX14noWq3
N1z6pkxq4MPDj2faDW+kROAZloNRtaZ2pu2QcOO3Yz983SMD+lvN3icfu+oAd+Jh
4f7gGdqJ+yzAjUNUjc5lw3lKFWe5rPxwIQ2YvTaMCWtCgKNGAra/0Ml8y2BEGQSB
hBMFeT1y+tEXCOE/oH25Lw1WcQxM4bo3co+KLqGS0BAoiSxSHekvbZ8fUIdDXPMW
Z8Mh0urSOv/WsyjEXJHimXKDM/YsMi4PRMD2eQJIMXnSEdv174Q6jOAp3a2uq5Ok
sSfvnwVJd8nja8xlTIQLGiDxOXZoHnUxE6nhU93KhRZMA72GmgOj1KwLGJSKp5Sg
ZUyrAkRUc7c2RtULcXi7uMmCyzXREIIuJBqD9I9xge54oni1j0+oZjdYesAqWoay
pNuyMbgUwE6SsH21IjNmPOgw1tqhA9xuFoRtkndhNxOlwADPfW/9oq7ZHsOZ3ao3
Ki6wXMVaRJymRliv8HDG
=OIjV
-----END PGP SIGNATURE-----
